flaticon/sport/torch.svg

<svg xmlns="http://www.w3.org/2000/svg" width="32" height="32" viewBox="0 0 24 24">
    <path d="M13.890625 7.511719C13.523438 7.144531 12.886719 7.144531 12.519531 7.511719L10.773438 9.253906C10.589844 9.4375 10.488281 9.683594 10.488281 9.941406 10.488281 10.203125 10.589844 10.445312 10.773438 10.628906L11.042969 10.894531 2.207031 22.253906C1.875 22.683594 1.910156 23.296875 2.296875 23.683594 2.503906 23.894531 2.78125 24 3.0625 24 3.296875 24 3.527344 23.925781 3.726562 23.773438L8.707031 19.894531 15.085938 14.9375 15.351562 15.207031C15.542969 15.394531 15.789062 15.488281 16.039062 15.488281 16.285156 15.488281 16.535156 15.394531 16.722656 15.207031L18.46875 13.460938C18.652344 13.277344 18.753906 13.035156 18.753906 12.773438 18.753906 12.515625 18.652344 12.273438 18.46875 12.089844zM3.234375 23.140625C3.121094 23.226562 2.960938 23.21875 2.863281 23.117188 2.761719 23.015625 2.753906 22.859375 2.839844 22.746094L6.160156 18.480469 7.5 19.820312zM8.136719 19.324219L6.65625 17.84375 11.613281 11.46875 14.511719 14.367188zM16.15625 14.640625C16.09375 14.703125 15.984375 14.707031 15.917969 14.640625L11.339844 10.0625C11.296875 10.019531 11.292969 9.96875 11.292969 9.941406 11.292969 9.914062 11.296875 9.867188 11.339844 9.820312L11.910156 9.253906 16.726562 14.070312zM17.902344 12.894531L17.292969 13.503906 12.476562 8.6875 13.085938 8.078125C13.171875 7.992188 13.238281 7.992188 13.324219 8.078125L17.902344 12.65625C17.945312 12.699219 17.953125 12.75 17.953125 12.777344 17.953125 12.800781 17.945312 12.851562 17.902344 12.894531zM21.550781 3.972656C20.605469 2.054688 18.9375.359375 18.867188.289062L18.582031 0 18.296875.289062C18.226562.359375 16.5625 2.054688 15.613281 3.972656 14.835938 5.546875 15.035156 7.378906 16.121094 8.632812 16.78125 9.398438 17.609375 9.785156 18.582031 9.785156 19.554688 9.785156 20.382812 9.398438 21.042969 8.632812 22.128906 7.378906 22.328125 5.546875 21.550781 3.972656zM20.4375 8.109375C19.933594 8.691406 19.3125 8.984375 18.582031 8.984375 17.851562 8.984375 17.230469 8.691406 16.726562 8.109375 15.851562 7.097656 15.699219 5.613281 16.332031 4.328125 16.996094 2.984375 18.070312 1.71875 18.582031 1.15625 19.09375 1.71875 20.167969 2.984375 20.832031 4.328125 21.464844 5.613281 21.3125 7.097656 20.4375 8.109375zM20.4375 8.109375"/>
    <path d="M 18.835938 2.757812 L 18.550781 2.472656 L 18.265625 2.757812 C 18.230469 2.796875 17.3125 3.730469 16.789062 4.789062 C 16.339844 5.703125 16.457031 6.765625 17.089844 7.5 C 17.476562 7.945312 17.980469 8.183594 18.550781 8.183594 C 19.125 8.183594 19.628906 7.945312 20.015625 7.5 C 20.648438 6.765625 20.765625 5.703125 20.3125 4.789062 C 19.792969 3.730469 18.875 2.796875 18.835938 2.757812 Z M 19.410156 6.972656 C 19.175781 7.25 18.894531 7.382812 18.550781 7.382812 C 18.210938 7.382812 17.929688 7.25 17.695312 6.976562 C 17.273438 6.488281 17.199219 5.769531 17.507812 5.144531 C 17.804688 4.546875 18.257812 3.972656 18.550781 3.636719 C 18.847656 3.972656 19.300781 4.546875 19.597656 5.144531 C 19.90625 5.769531 19.832031 6.488281 19.410156 6.972656 Z M 19.410156 6.972656"/>
</svg>

<svg xmlns="http://www.w3.org/2000/svg" width="32" height="32" viewBox="0 0 24 24">
    <path d="M13.89 7.512a.991.991 0 0 0-1.37 0l-1.747 1.742a.97.97 0 0 0 0 1.375l.27.266-8.836 11.359a1.085 1.085 0 0 0 .09 1.43 1.084 1.084 0 0 0 1.43.09l4.98-3.88 6.379-4.956.266.269a.976.976 0 0 0 1.37 0l1.747-1.746a.963.963 0 0 0 0-1.371zM3.235 23.14a.28.28 0 1 1-.395-.395L6.16 18.48l1.34 1.34zm4.903-3.817l-1.48-1.48 4.956-6.375 2.899 2.898zm8.02-4.683a.171.171 0 0 1-.239 0l-4.578-4.579a.165.165 0 0 1-.047-.12.17.17 0 0 1 .047-.122l.57-.566 4.817 4.816zm1.745-1.746l-.609.609-4.816-4.816.609-.61c.086-.086.152-.086.238 0l4.578 4.578c.043.043.051.094.051.121a.17.17 0 0 1-.05.118zm0 0M21.55 3.973C20.606 2.055 18.938.359 18.868.289L18.582 0l-.285.29c-.07.07-1.735 1.765-2.684 3.683-.777 1.574-.578 3.406.508 4.66.66.765 1.488 1.152 2.461 1.152.973 0 1.8-.387 2.461-1.152 1.086-1.254 1.285-3.086.508-4.66zm-1.113 4.136c-.503.582-1.125.875-1.855.875s-1.352-.293-1.855-.875c-.875-1.011-1.028-2.496-.395-3.78.664-1.345 1.738-2.61 2.25-3.173.512.563 1.586 1.828 2.25 3.172.633 1.285.48 2.77-.395 3.781zm0 0"/>
    <path d="M18.836 2.758l-.285-.285-.285.285c-.036.039-.953.972-1.477 2.031-.45.914-.332 1.977.3 2.711.388.445.891.684 1.462.684.574 0 1.078-.239 1.465-.684.632-.734.75-1.797.297-2.71-.52-1.06-1.438-1.993-1.477-2.032zm.574 4.215c-.234.277-.515.41-.86.41-.34 0-.62-.133-.855-.406-.422-.489-.496-1.207-.187-1.832.297-.598.75-1.172 1.043-1.508.297.336.75.91 1.047 1.508.308.625.234 1.343-.188 1.828zm0 0"/>
</svg>
